X:1
T:Choralprelude: Angelus Pastoribus
T:Choral prelude: Angelus Pastoribus
T:manualiter
T:Piotr Tomasz Harasimiuk
T:EMA 2016
T:EMA 2016
C:Piotr Tomasz Harasimiuk
Z:EMA 2016
%%score { ( 1 2 ) | ( 3 4 ) }
L:1/8
Q:1/4=60
M:4/4
K:Eb
V:1 treble nm="Organo" snm="Org."
V:2 treble 
V:3 bass 
V:4 bass 
V:1
 z8 | z8 | B2 B2 c2 c2 | B2 =A2 BcB_A | Ge/d/ c/B/A/G/ Af/e/ d/c/B/A/ | Be e/f/e/d/ e2 z2 | z8 | %7
 E2 E2 F2 F2 | G2 F2 E2 z2 | B2 B2 c2 c2 | B2 =A2 B2 z2 | B2 B2 c2 z2 | B2 B2 A2 A2 | G2 G2 F2 z2 | %14
 B2 B2 A2 A2 | G2 G2 F2 z2 | B4 G2 A2 | G2 F2 E4 |] %18
V:2
 E2 E2 F2 F2 | G2 F2 EGFE | DB/A/ G/F/E/D/ Ec/B/ A/G/F/E/ | DG F/G/F/E/ DE D2 | EB, E2 CC F2 | %5
 EG A2 GBAG | FE/D/ EB,/_D/ CB,/A,/ B,/C/B,/A,/ | G,/F,/G,/A,/ B,/A,/B,/G,/ C/D/C/D/ E/D/C/D/ | %8
 E/B,/C/D/ E/D/C/D/ E2- E/G/F/G/ | EDGF A/B/A/G/ AE | D/E/C/D/ E/F/C B,E/F/ D/E/C/D/ | %11
 EB/A/ G/F/E/D/ E>E AD | EB/A/ G/F/=E/D/ CA/G/ F/_E/D/C/ | B,G/F/ E/F/D/E/ C2 D/E/C/D/ | %14
 B,G/F/ =EC FF/_E/ DF | FB, E/F/D/E/- EC D2 | EG/F/ G2- GE C2 | DE- E/D/C/D/ E4 |] %18
V:3
 z8 | z8 | z8 | z8 | E,2 E,2 F,2 F,2 | G,2 F,2 E,G,F,E, | D,B,,E,G,, A,,F,, B,,2 | %7
 E,/D,/E,/F,/ G,/F,/G,/E,/ A,F,B,B,, | E,G,,A,,B,, E,,G,,B,,E, | %9
 G,/A,/G,/F,/ E,/F,/E,/D,/ C,B,, A,,A,/G,/ | F,B, CF,/E,/ D,F,B,,A, | %11
 G,/A,/G,/F,/ E,G, A,/B,/A,/G,/ F,/D,/B,/B,,/ | G,/A,/G,/F,/ =E,C, F,/G,/F,/_E,/ D,B,, | %13
 E,D,C,B,, A,,F,, B,,2 | E,B,/A,/ G,/F,/=E,/D,/ C,A,/G,/ F,/_E,/D,/C,/ | %15
 B,,E,/D,/ E,E,, A,,F,, B,,/C,/B,,/A,,/ | G,,E,/D,/ E,G,/F,/ G,A,,/B,,/ C,A,, | %17
 x2 B,A,- A,G,/F,/ G,2 |] %18
V:4
 x8 | x8 | x8 | x8 | x8 | x8 | x8 | x8 | x8 | x8 | x8 | x8 | x8 | x8 | x8 | x8 | x8 | %17
 B,,B,/A,/ B,B,, E,4 |] %18

